X: 9
T:Sports of Fancy,The. WCl.09
T:Chester Races,aka.cf(). WCl.09
M:2/4
L:1/8
Q:350
S:William Clarke MS,Lincoln,1770.
R:reel
O:Lincoln
A:England
N:Shares part A with part C of Chester Races...CGP..
Z:vmp.Barry Callaghan
K:Bb
bfdB|bfdB|cBcd|BAGF|bfdB|bfdB|ecBA|B4::!
G2 GB|F2 cd|edcB|BAGF|G2 GB|F2 cd|edcd|B4:||
